X:1
T:Old Ten Commandments
T:Old Ten Commandments
T:Attributed to J. Baptist  Bonometti, 1560
T:Public Domain Courtesy of the Cyber Hymnal™
C:Attributed to J. Baptist  Bonometti, 1560
Z:Public Domain
Z:Courtesy of the Cyber Hymnal™
%%score ( 1 2 ) ( 3 4 )
L:1/8
Q:1/4=107
M:2/4
K:G
V:1 treble 
V:2 treble 
V:3 bass 
V:4 bass 
V:1
 z2 [DG]2 | [EG]2 [FA]2 | [GB]2 [FA]2 | (cB) [FA]2 | !fermata!G2 [GB]2 | [Ac]2 [GB]2 | %6
 [FA]2 [EG]2 | [DF]2 [EG]2 | !fermata![FA]2 [Gd]2 | [Ac]2 [GB]2 | [EA]2 F2 | (GF) [CE]2 | %12
 !fermata!D2 [DB]2 | [Dc]2 [DB]2 | A2 ([B,G][CA]) | [DB]2 A2 | [B,G]4 |] %17
V:2
 x4 | x4 | x4 | E2 x2 | G2 x2 | x4 | x4 | x4 | x4 | x4 | x2 (DC) | B,2 x2 | D2 x2 | x4 | (DC) x2 | %15
 x2 (DC) | x4 |] %17
V:3
 z2 [G,,B,]2 | [C,C]2 [A,,C]2 | [G,,D]2 [D,D]2 | [A,,C]2 (DC) | [G,,B,]2 [G,D]2 | [F,D]2 [G,D]2 | %6
 (DC) [E,B,]2 | [B,,B,]2 [E,B,]2 | !fermata![D,D]2 [B,D]2 | [F,D]2 [G,D]2 | [A,C]2 [D,A,]2 | %11
 [E,G,]2 (A,G,) | !fermata![D,F,]2 [G,,G,]2 | [A,,F,]2 G,2 | [D,F,]2 [E,G,]2 | [D,G,]2 [D,F,]2 | %16
 [G,,G,]4 |] %17
V:4
 x4 | x4 | x4 | x2 D,2 | x4 | x4 | D,2 x2 | x4 | x4 | x4 | x4 | x2 A,,2 | x4 | x2 (B,,C,) | x4 | %15
 x4 | x4 |] %17

